X:162
T:Unknown
R:jig
Z:transcribed by Dave Marshall
M:6/8
K:D
|: ~f3 edB | AdB AFA | BAF DEF | Adf e3 |
~f3 edB | AdB AFA | BAF DEF | Add d3 :|
|: ~f3 afa | baf ede | ~f3 edB | Adf e3 |
~f3 afa | baf ede | ~f3 edB | Add d3 :|
